lib/svgs/scanning.svg

<svg xmlns="http://www.w3.org/2000/svg" viewBox="0 0 20 20">
    <path fill="#000" fill-rule="evenodd" d="M15.8,12.5 L15.8,15.152 C15.8,15.585 15.434,15.952 15,15.952 L5,15.952 C4.566,15.952 4.2,15.585 4.2,15.152 L4.2,13.501 C4.2,13.5 4.2,12.5 4.2,12.5 C4.2,12.169 3.931,11.9 3.6,11.9 C3.269,11.9 3,12.169 3,12.5 L3,13.5 L3,15.152 C3,16.252 3.9,17.152 5,17.152 L15,17.152 C16.1,17.152 17,16.252 17,15.152 L17,12.5 C17,12.169 16.731,11.9 16.4,11.9 C16.069,11.9 15.8,12.169 15.8,12.5 L15.8,12.5 Z M16.4,10.6001 L3.6,10.6001 C3.269,10.6001 3,10.3311 3,10.0001 C3,9.6681 3.269,9.4001 3.6,9.4001 L16.4,9.4001 C16.732,9.4001 17,9.6681 17,10.0001 C17,10.3311 16.732,10.6001 16.4,10.6001 L16.4,10.6001 Z M5,2.8483 C3.9,2.8483 3,3.7483 3,4.8483 L3,7.5003 C3,7.8313 3.269,8.1003 3.6,8.1003 C3.932,8.1003 4.2,7.8313 4.2,7.5003 L4.2,6.4993 L4.2,4.8483 C4.2,4.4143 4.566,4.0483 5,4.0483 L15,4.0483 C15.434,4.0483 15.8,4.4143 15.8,4.8483 L15.8,7.5003 C15.8,7.8313 16.069,8.1003 16.4,8.1003 C16.731,8.1003 17,7.8313 17,7.5003 L17,4.8483 C17,3.7483 16.1,2.8483 15,2.8483 L5,2.8483 L5,2.8483 Z"/>
</svg>

<svg xmlns="http://www.w3.org/2000/svg" viewBox="0 0 20 20">
    <path fill="#000" fill-rule="evenodd" d="M15.8 12.5v2.652a.81.81 0 0 1-.8.8H5a.81.81 0 0 1-.8-.8v-1.651V12.5a.6.6 0 0 0-1.2 0v2.652c0 1.1.9 2 2 2h10c1.1 0 2-.9 2-2V12.5a.6.6 0 0 0-1.2 0m.6-1.9H3.6a.6.6 0 0 1 0-1.2h12.8a.6.6 0 1 1 0 1.2M5 2.848c-1.1 0-2 .9-2 2V7.5a.6.6 0 0 0 1.2 0V4.848c0-.434.366-.8.8-.8h10c.434 0 .8.366.8.8V7.5a.6.6 0 0 0 1.2 0V4.848c0-1.1-.9-2-2-2H5"/>
</svg>
